packages/ui-icons/src/Service-logos/24/Google-disk.svg

<svg viewBox="0 0 32 32" fill="none" xmlns="http://www.w3.org/2000/svg">
<path d="M16 28C22.6274 28 28 22.6274 28 16C28 9.37258 22.6274 4 16 4C9.37258 4 4 9.37258 4 16C4 22.6274 9.37258 28 16 28Z" fill="white"/>
<path fill-rule="evenodd" clip-rule="evenodd" d="M3.5 16C3.5 9.09644 9.09644 3.5 16 3.5C22.9036 3.5 28.5 9.09644 28.5 16C28.5 22.9036 22.9036 28.5 16 28.5C9.09644 28.5 3.5 22.9036 3.5 16ZM16 4.5C9.64873 4.5 4.5 9.64873 4.5 16C4.5 22.3513 9.64873 27.5 16 27.5C22.3513 27.5 27.5 22.3513 27.5 16C27.5 9.64873 22.3513 4.5 16 4.5Z" fill="#D8D8D8"/>
<path d="M16.0013 13.532L13.7989 9.7146C13.8721 9.64148 13.9562 9.59352 14.0403 9.56128C13.3909 9.77121 13.0929 10.4875 13.0929 10.4875L9.06941 17.4594C9.0128 17.678 8.99707 17.8753 9.00415 18.0491H13.3956L16.0013 13.532Z" fill="#34A853"/>
<path d="M16.0012 13.532L18.607 18.0491H22.9984C23.0054 17.8753 22.9897 17.678 22.9331 17.4594L18.9097 10.4875C18.9097 10.4875 18.6109 9.77121 17.9622 9.56128C18.0456 9.59352 18.1305 9.64148 18.2036 9.7146L16.0012 13.532Z" fill="#FBBC05"/>
<path d="M16.0012 13.5319L18.2036 9.71457C18.1305 9.64145 18.0456 9.59349 17.9622 9.56125C17.8663 9.53059 17.7633 9.51014 17.6516 9.50464H17.5353H14.4672H14.3508C14.24 9.50936 14.1362 9.5298 14.0402 9.56125C13.9569 9.59349 13.872 9.64145 13.7989 9.71457L16.0012 13.5319Z" fill="#188038"/>
<path d="M13.3963 18.049L11.2191 21.823C11.2191 21.823 11.1467 21.7884 11.0484 21.7169C11.3574 21.9504 11.6578 22 11.6578 22H20.2086C20.6804 22 20.7787 21.823 20.7787 21.823C20.7803 21.8222 20.7811 21.8214 20.7826 21.8207L18.607 18.049H13.3963Z" fill="#4285F4"/>
<path d="M13.3965 18.049H9.00507C9.02708 18.5617 9.25353 18.8612 9.25353 18.8612L9.41865 19.1427C9.43045 19.1592 9.43752 19.1686 9.43752 19.1686L9.79685 19.7882L10.6036 21.1674C10.6272 21.2232 10.6547 21.2743 10.6838 21.323C10.6948 21.3395 10.705 21.3576 10.7168 21.3734C10.72 21.3781 10.7231 21.3828 10.7262 21.3875C10.8261 21.5259 10.9378 21.6327 11.0494 21.7169C11.1477 21.7892 11.22 21.823 11.22 21.823L13.3965 18.049Z" fill="#1967D2"/>
<path d="M18.607 18.049H22.9984C22.9763 18.5617 22.7499 18.8612 22.7499 18.8612L22.5848 19.1427C22.573 19.1592 22.5659 19.1686 22.5659 19.1686L22.2066 19.7882L21.3998 21.1674C21.3763 21.2232 21.3487 21.2743 21.3196 21.323C21.3086 21.3395 21.2984 21.3576 21.2866 21.3734C21.2835 21.3781 21.2803 21.3828 21.2772 21.3875C21.1773 21.5259 21.0657 21.6327 20.954 21.7169C20.8557 21.7892 20.7834 21.823 20.7834 21.823L18.607 18.049Z" fill="#EA4335"/>
</svg>

<svg viewBox="0 0 32 32" fill="none" xmlns="http://www.w3.org/2000/svg"><path d="M16 28c6.627 0 12-5.373 12-12S22.627 4 16 4 4 9.373 4 16s5.373 12 12 12Z" fill="#fff"/><path fill-rule="evenodd" clip-rule="evenodd" d="M3.5 16C3.5 9.096 9.096 3.5 16 3.5S28.5 9.096 28.5 16 22.904 28.5 16 28.5 3.5 22.904 3.5 16ZM16 4.5C9.649 4.5 4.5 9.649 4.5 16S9.649 27.5 16 27.5 27.5 22.351 27.5 16 22.351 4.5 16 4.5Z" fill="#D8D8D8"/><path d="M16.001 13.532 13.8 9.715a.682.682 0 0 1 .241-.154c-.65.21-.947.927-.947.927l-4.024 6.971a2.013 2.013 0 0 0-.065.59h4.392L16 13.532Z" fill="#34A853"/><path d="m16.001 13.532 2.606 4.517h4.391a2.016 2.016 0 0 0-.065-.59l-4.023-6.971s-.3-.717-.948-.927c.084.033.169.08.242.154L16 13.532Z" fill="#FBBC05"/><path d="m16.001 13.532 2.203-3.817a.688.688 0 0 0-.242-.154 1.209 1.209 0 0 0-.31-.056H14.35c-.111.004-.215.025-.31.056a.688.688 0 0 0-.242.154L16 13.532Z" fill="#188038"/><path d="m13.396 18.049-2.177 3.774s-.072-.035-.17-.106c.308.233.609.283.609.283h8.55c.472 0 .57-.177.57-.177l.005-.002-2.176-3.772h-5.21Z" fill="#4285F4"/><path d="M13.396 18.049h-4.39c.021.513.248.812.248.812l.165.282.019.026.359.62.807 1.378c.023.056.05.107.08.156a1.15 1.15 0 0 1 .042.064c.1.139.212.246.323.33.099.072.171.106.171.106l2.176-3.774Z" fill="#1967D2"/><path d="M18.607 18.049h4.391c-.022.513-.248.812-.248.812l-.165.282-.02.026-.358.62-.807 1.378a1.242 1.242 0 0 1-.08.156l-.033.05-.01.014c-.1.139-.211.246-.323.33-.098.072-.17.106-.17.106l-2.177-3.774Z" fill="#EA4335"/></svg>
